res/svg/gd.svg

<svg width="640" height="480" viewBox="0 0 640 480" fill="none" xmlns="http://www.w3.org/2000/svg">
  <g clip-path="url(#clip0_4_1546)">
    <path d="M0 0H640V480H0V0Z" fill="#CE1126"/>
    <path d="M67.2 67.2H572.8V412.8H67.2V67.2Z" fill="#007A5E"/>
    <path d="M67.2 67.3H572.8L67.2 412.9H572.8L67.2 67.3Z" fill="#FCD116"/>
    <path d="M319.9 297.7C351.712 297.7 377.5 271.912 377.5 240.1C377.5 208.288 351.712 182.5 319.9 182.5C288.088 182.5 262.3 208.288 262.3 240.1C262.3 271.912 288.088 297.7 319.9 297.7Z" fill="#CE1126"/>
    <path d="M320 187.2L303.684 237.416L328.792 245.574" fill="#FCD116"/>
    <path d="M320 187.2L336.316 237.416L311.208 245.574" fill="#FCD116"/>
    <path d="M370.216 223.684H317.416V250.084" fill="#FCD116"/>
    <path d="M370.216 223.684L327.5 254.719L311.982 233.361" fill="#FCD116"/>
    <path d="M351.035 282.716L334.719 232.5L309.611 240.658" fill="#FCD116"/>
    <path d="M351.035 282.716L308.319 251.681L323.837 230.323" fill="#FCD116"/>
    <path d="M288.965 282.716L331.681 251.681L316.164 230.323" fill="#FCD116"/>
    <path d="M288.965 282.716L305.281 232.5L330.389 240.658" fill="#FCD116"/>
    <path d="M269.784 223.684L312.5 254.719L328.018 233.361" fill="#FCD116"/>
    <path d="M269.784 223.684H322.584V250.084" fill="#FCD116"/>
    <path d="M189.7 2.40002L180.059 32.073L194.895 36.8937" fill="#FCD116"/>
    <path d="M189.7 2.40002L199.341 32.073L184.505 36.8937" fill="#FCD116"/>
    <path d="M219.373 23.9587H188.173V39.5587" fill="#FCD116"/>
    <path d="M219.373 23.9587L194.132 42.2976L184.962 29.677" fill="#FCD116"/>
    <path d="M208.039 58.8414L198.398 29.1685L183.561 33.9891" fill="#FCD116"/>
    <path d="M208.039 58.8414L182.798 40.5025L191.967 27.8819" fill="#FCD116"/>
    <path d="M171.361 58.8413L196.602 40.5024L187.433 27.8817" fill="#FCD116"/>
    <path d="M171.361 58.8413L181.002 29.1683L195.839 33.989" fill="#FCD116"/>
    <path d="M160.027 23.9586L185.268 42.2975L194.438 29.6769" fill="#FCD116"/>
    <path d="M160.027 23.9586H191.227V39.5586" fill="#FCD116"/>
    <path d="M320 2.40002L310.359 32.073L325.195 36.8937" fill="#FCD116"/>
    <path d="M320 2.40002L329.641 32.073L314.805 36.8937" fill="#FCD116"/>
    <path d="M349.673 23.9587H318.473V39.5587" fill="#FCD116"/>
    <path d="M349.673 23.9587L324.432 42.2976L315.262 29.677" fill="#FCD116"/>
    <path d="M338.339 58.8414L328.698 29.1685L313.861 33.9891" fill="#FCD116"/>
    <path d="M338.339 58.8414L313.098 40.5025L322.267 27.8819" fill="#FCD116"/>
    <path d="M301.661 58.8413L326.902 40.5024L317.733 27.8817" fill="#FCD116"/>
    <path d="M301.661 58.8413L311.302 29.1683L326.139 33.989" fill="#FCD116"/>
    <path d="M290.327 23.9586L315.568 42.2975L324.738 29.6769" fill="#FCD116"/>
    <path d="M290.327 23.9586H321.527V39.5586" fill="#FCD116"/>
    <path d="M450.3 2.40002L440.659 32.073L455.495 36.8937" fill="#FCD116"/>
    <path d="M450.3 2.40002L459.941 32.073L445.105 36.8937" fill="#FCD116"/>
    <path d="M479.973 23.9587H448.773V39.5587" fill="#FCD116"/>
    <path d="M479.973 23.9587L454.732 42.2976L445.562 29.677" fill="#FCD116"/>
    <path d="M468.639 58.8414L458.998 29.1685L444.161 33.9891" fill="#FCD116"/>
    <path d="M468.639 58.8414L443.398 40.5025L452.567 27.8819" fill="#FCD116"/>
    <path d="M431.961 58.8413L457.202 40.5024L448.033 27.8817" fill="#FCD116"/>
    <path d="M431.961 58.8413L441.602 29.1683L456.439 33.989" fill="#FCD116"/>
    <path d="M420.627 23.9586L445.868 42.2975L455.038 29.6769" fill="#FCD116"/>
    <path d="M420.627 23.9586H451.827V39.5586" fill="#FCD116"/>
    <path d="M102.3 240.7C109.897 254.867 121.565 266.431 135.8 273.9C135.245 258.271 131.395 242.937 124.5 228.9L102.3 240.7V240.7Z" fill="#CE1126"/>
    <path d="M90.1 194.7C100.5 216.4 63 268.4 125.6 280.6C117.147 268.352 113.287 253.514 114.7 238.7C128.613 245.131 140.031 255.952 147.2 269.5C163.6 210 105.2 213.7 90.1 194.7Z" fill="#FCD116"/>
    <path d="M189.7 417L180.059 446.673L194.895 451.494" fill="#FCD116"/>
    <path d="M189.7 417L199.341 446.673L184.505 451.494" fill="#FCD116"/>
    <path d="M219.373 438.559H188.173V454.159" fill="#FCD116"/>
    <path d="M219.373 438.559L194.132 456.898L184.962 444.277" fill="#FCD116"/>
    <path d="M208.039 473.441L198.398 443.768L183.561 448.589" fill="#FCD116"/>
    <path d="M208.039 473.441L182.798 455.103L191.967 442.482" fill="#FCD116"/>
    <path d="M171.361 473.441L196.602 455.102L187.433 442.482" fill="#FCD116"/>
    <path d="M171.361 473.441L181.002 443.768L195.839 448.589" fill="#FCD116"/>
    <path d="M160.027 438.559L185.268 456.897L194.438 444.277" fill="#FCD116"/>
    <path d="M160.027 438.559H191.227V454.159" fill="#FCD116"/>
    <path d="M320 417L310.359 446.673L325.195 451.494" fill="#FCD116"/>
    <path d="M320 417L329.641 446.673L314.805 451.494" fill="#FCD116"/>
    <path d="M349.673 438.559H318.473V454.159" fill="#FCD116"/>
    <path d="M349.673 438.559L324.432 456.898L315.262 444.277" fill="#FCD116"/>
    <path d="M338.339 473.441L328.698 443.768L313.861 448.589" fill="#FCD116"/>
    <path d="M338.339 473.441L313.098 455.103L322.267 442.482" fill="#FCD116"/>
    <path d="M301.661 473.441L326.902 455.102L317.733 442.482" fill="#FCD116"/>
    <path d="M301.661 473.441L311.302 443.768L326.139 448.589" fill="#FCD116"/>
    <path d="M290.327 438.559L315.568 456.897L324.738 444.277" fill="#FCD116"/>
    <path d="M290.327 438.559H321.527V454.159" fill="#FCD116"/>
    <path d="M450.3 417L440.659 446.673L455.495 451.494" fill="#FCD116"/>
    <path d="M450.3 417L459.941 446.673L445.105 451.494" fill="#FCD116"/>
    <path d="M479.973 438.559H448.773V454.159" fill="#FCD116"/>
    <path d="M479.973 438.559L454.732 456.898L445.562 444.277" fill="#FCD116"/>
    <path d="M468.639 473.441L458.998 443.768L444.161 448.589" fill="#FCD116"/>
    <path d="M468.639 473.441L443.398 455.103L452.567 442.482" fill="#FCD116"/>
    <path d="M431.961 473.441L457.202 455.102L448.033 442.482" fill="#FCD116"/>
    <path d="M431.961 473.441L441.602 443.768L456.439 448.589" fill="#FCD116"/>
    <path d="M420.627 438.559L445.868 456.897L455.038 444.277" fill="#FCD116"/>
    <path d="M420.627 438.559H451.827V454.159" fill="#FCD116"/>
  </g>
  <defs>
    <clipPath id="clip0_4_1546">
      <rect width="640" height="480" fill="white"/>
    </clipPath>
  </defs>
</svg>

<svg xmlns="http://www.w3.org/2000/svg" width="640" height="480" fill="none"><g clip-path="url(#a)"><path fill="#CE1126" d="M0 0h640v480H0z"/><path fill="#007A5E" d="M67.2 67.2h505.6v345.6H67.2z"/><path fill="#FCD116" d="M67.2 67.3h505.6L67.2 412.9h505.6z"/><path fill="#CE1126" d="M319.9 297.7c31.812 0 57.6-25.788 57.6-57.6s-25.788-57.6-57.6-57.6-57.6 25.788-57.6 57.6 25.788 57.6 57.6 57.6"/><path fill="#FCD116" d="m320 187.2-16.316 50.216 25.108 8.158"/><path fill="#FCD116" d="m320 187.2 16.316 50.216-25.108 8.158"/><path fill="#FCD116" d="M370.216 223.684h-52.8v26.4"/><path fill="#FCD116" d="M370.216 223.684 327.5 254.719l-15.518-21.358"/><path fill="#FCD116" d="M351.035 282.716 334.719 232.5l-25.108 8.158"/><path fill="#FCD116" d="m351.035 282.716-42.716-31.035 15.518-21.358"/><path fill="#FCD116" d="m288.965 282.716 42.716-31.035-15.517-21.358"/><path fill="#FCD116" d="m288.965 282.716 16.316-50.216 25.108 8.158"/><path fill="#FCD116" d="m269.784 223.684 42.716 31.035 15.518-21.358"/><path fill="#FCD116" d="M269.784 223.684h52.8v26.4M189.7 2.4l-9.641 29.673 14.836 4.82"/><path fill="#FCD116" d="m189.7 2.4 9.641 29.673-14.836 4.82"/><path fill="#FCD116" d="M219.373 23.959h-31.2v15.6"/><path fill="#FCD116" d="m219.373 23.959-25.241 18.339-9.17-12.621"/><path fill="#FCD116" d="m208.039 58.841-9.641-29.672-14.837 4.82"/><path fill="#FCD116" d="m208.039 58.841-25.241-18.339 9.169-12.62"/><path fill="#FCD116" d="m171.361 58.841 25.241-18.339-9.169-12.62"/><path fill="#FCD116" d="m171.361 58.841 9.641-29.673 14.837 4.821"/><path fill="#FCD116" d="m160.027 23.959 25.241 18.339 9.17-12.621"/><path fill="#FCD116" d="M160.027 23.959h31.2v15.6M320 2.4l-9.641 29.673 14.836 4.82"/><path fill="#FCD116" d="m320 2.4 9.641 29.673-14.836 4.82"/><path fill="#FCD116" d="M349.673 23.959h-31.2v15.6"/><path fill="#FCD116" d="m349.673 23.959-25.241 18.339-9.17-12.621"/><path fill="#FCD116" d="m338.339 58.841-9.641-29.672-14.837 4.82"/><path fill="#FCD116" d="m338.339 58.841-25.241-18.339 9.169-12.62"/><path fill="#FCD116" d="m301.661 58.841 25.241-18.339-9.169-12.62"/><path fill="#FCD116" d="m301.661 58.841 9.641-29.673 14.837 4.821"/><path fill="#FCD116" d="m290.327 23.959 25.241 18.339 9.17-12.621"/><path fill="#FCD116" d="M290.327 23.959h31.2v15.6M450.3 2.4l-9.641 29.673 14.836 4.82"/><path fill="#FCD116" d="m450.3 2.4 9.641 29.673-14.836 4.82"/><path fill="#FCD116" d="M479.973 23.959h-31.2v15.6"/><path fill="#FCD116" d="m479.973 23.959-25.241 18.339-9.17-12.621"/><path fill="#FCD116" d="m468.639 58.841-9.641-29.672-14.837 4.82"/><path fill="#FCD116" d="m468.639 58.841-25.241-18.339 9.169-12.62"/><path fill="#FCD116" d="m431.961 58.841 25.241-18.339-9.169-12.62"/><path fill="#FCD116" d="m431.961 58.841 9.641-29.673 14.837 4.821"/><path fill="#FCD116" d="m420.627 23.959 25.241 18.339 9.17-12.621"/><path fill="#FCD116" d="M420.627 23.959h31.2v15.6"/><path fill="#CE1126" d="M102.3 240.7a80.4 80.4 0 0 0 33.5 33.2 111 111 0 0 0-11.3-45z"/><path fill="#FCD116" d="M90.1 194.7c10.4 21.7-27.1 73.7 35.5 85.9a63.2 63.2 0 0 1-10.9-41.9 70 70 0 0 1 32.5 30.8c16.4-59.5-42-55.8-57.1-74.8M189.7 417l-9.641 29.673 14.836 4.821"/><path fill="#FCD116" d="m189.7 417 9.641 29.673-14.836 4.821"/><path fill="#FCD116" d="M219.373 438.559h-31.2v15.6"/><path fill="#FCD116" d="m219.373 438.559-25.241 18.339-9.17-12.621"/><path fill="#FCD116" d="m208.039 473.441-9.641-29.673-14.837 4.821"/><path fill="#FCD116" d="m208.039 473.441-25.241-18.338 9.169-12.621"/><path fill="#FCD116" d="m171.361 473.441 25.241-18.339-9.169-12.62"/><path fill="#FCD116" d="m171.361 473.441 9.641-29.673 14.837 4.821"/><path fill="#FCD116" d="m160.027 438.559 25.241 18.338 9.17-12.62"/><path fill="#FCD116" d="M160.027 438.559h31.2v15.6M320 417l-9.641 29.673 14.836 4.821"/><path fill="#FCD116" d="m320 417 9.641 29.673-14.836 4.821"/><path fill="#FCD116" d="M349.673 438.559h-31.2v15.6"/><path fill="#FCD116" d="m349.673 438.559-25.241 18.339-9.17-12.621"/><path fill="#FCD116" d="m338.339 473.441-9.641-29.673-14.837 4.821"/><path fill="#FCD116" d="m338.339 473.441-25.241-18.338 9.169-12.621"/><path fill="#FCD116" d="m301.661 473.441 25.241-18.339-9.169-12.62"/><path fill="#FCD116" d="m301.661 473.441 9.641-29.673 14.837 4.821"/><path fill="#FCD116" d="m290.327 438.559 25.241 18.338 9.17-12.62"/><path fill="#FCD116" d="M290.327 438.559h31.2v15.6M450.3 417l-9.641 29.673 14.836 4.821"/><path fill="#FCD116" d="m450.3 417 9.641 29.673-14.836 4.821"/><path fill="#FCD116" d="M479.973 438.559h-31.2v15.6"/><path fill="#FCD116" d="m479.973 438.559-25.241 18.339-9.17-12.621"/><path fill="#FCD116" d="m468.639 473.441-9.641-29.673-14.837 4.821"/><path fill="#FCD116" d="m468.639 473.441-25.241-18.338 9.169-12.621"/><path fill="#FCD116" d="m431.961 473.441 25.241-18.339-9.169-12.62"/><path fill="#FCD116" d="m431.961 473.441 9.641-29.673 14.837 4.821"/><path fill="#FCD116" d="m420.627 438.559 25.241 18.338 9.17-12.62"/><path fill="#FCD116" d="M420.627 438.559h31.2v15.6"/></g><defs><clipPath id="a"><path fill="#fff" d="M0 0h640v480H0z"/></clipPath></defs></svg>
